X: 4
T: Donald, Willie, and the Dog
M: 9/8
L: 1/8
R: slip jig
K: G Major
|: D |
G2 B BGB A2 d | G2 B BGB c>BA | G2 B BG/A/B AFD | E2 G GAF G2 :|
|: B |
A2 d dGB A2 F | A2 d dGB c>AF | Add dGB A2 c | B2 G GAF G2 :|
|: D |
G2 B GAA Bdd | G2 A GBB A>FD | G2 B GAA BdD | E2 G GAF G2 :|
|: B |
d2 B Be^c dBG | B/c/dB cBc A>Bc | d2 B Be^c d2 =c | B2 G GAF G2 :|
